X: 1
T: Gone For His Tea
M: 4/4
L: 1/8
R: reel
K: Edor
E2FE DEFG|A2BF AFED|E2FE DEFG|AFDF (3EFE D2:|
d2ed cA~A2|BAGB A2Bc|d2ed BABc|dBAF (3EFE D2|
d2ed cA~A2|BAGB AFED|E2FE DEFG|AFDF (3EFE D2|
